src/images/single-assets/USX.svg

<?xml version="1.0" encoding="UTF-8"?>
<svg width="32px" height="32px" viewBox="0 0 32 32" version="1.1" xmlns="http://www.w3.org/2000/svg" xmlns:xlink="http://www.w3.org/1999/xlink">
    <title>USX</title>
    <g id="Page-1" stroke="none" stroke-width="1" fill="none" fill-rule="evenodd">
        <g id="Artboard备份" transform="translate(-1582.000000, -4045.000000)">
            <g id="USX" transform="translate(1582.000000, 4045.000000)">
                <circle id="椭圆形" fill="#FFAA1D" cx="16" cy="16" r="16"></circle>
                <circle id="椭圆形备份" fill="#242A47" cx="16" cy="16" r="13.5384615"></circle>
                <circle id="椭圆形备份-2" fill="#FFFFFF" cx="16" cy="16" r="11.0769231"></circle>
                <path d="M16.9318328,23.7489065 L15.3904556,23.7489065 L15.3904556,21.9973418 C14.3255038,21.8712291 13.1344302,21.3948034 12.3076923,20.638128 L13.3165936,19.0967508 C14.1713579,19.7693517 14.9980958,20.1617026 15.8949051,20.1617026 C16.987881,20.1617026 17.4923328,19.6712651 17.4923328,18.7884767 C17.4923328,16.6865995 12.742086,16.8687607 12.742086,13.6038385 C12.742086,11.9083242 13.7509873,10.7312783 15.3904578,10.4229997 L15.3904578,8.61538462 L16.931835,8.61538462 L16.931835,10.3949734 C18.0528372,10.5491111 18.851551,11.1096127 19.5241541,11.8102376 L18.3751278,13.1274153 C17.7305511,12.538889 17.1700511,12.2025885 16.3713373,12.2025885 C15.4465105,12.2025885 14.942061,12.6369756 14.942061,13.4917398 C14.942061,15.4254679 19.6923077,15.1312036 19.6923077,18.6203254 C19.6782952,20.3298517 18.7254448,21.6049909 16.9318306,21.9412847 L16.9318328,23.7489065 Z" id="路径" fill="#242A47" fill-rule="nonzero"></path>
            </g>
        </g>
    </g>
</svg>

<svg xmlns="http://www.w3.org/2000/svg" width="32" height="32"><g fill="none" fill-rule="evenodd"><circle cx="16" cy="16" r="16" fill="#FFAA1D"/><circle cx="16" cy="16" r="13.538" fill="#242A47"/><circle cx="16" cy="16" r="11.077" fill="#FFF"/><path fill="#242A47" fill-rule="nonzero" d="M16.932 23.749H15.39v-1.752c-1.064-.126-2.256-.602-3.082-1.359l1.009-1.541c.854.672 1.681 1.065 2.578 1.065 1.093 0 1.597-.49 1.597-1.374 0-2.101-4.75-1.92-4.75-5.184 0-1.696 1.009-2.873 2.648-3.181V8.615h1.542v1.78c1.12.154 1.92.715 2.592 1.415l-1.149 1.317c-.644-.588-1.205-.924-2.004-.924-.924 0-1.429.434-1.429 1.289 0 1.933 4.75 1.64 4.75 5.128-.014 1.71-.967 2.985-2.76 3.321z"/></g></svg>
